X:90
T:Always Welcome
R:marching air
C:Paul S. Cranford
O:Cape Breton Island
S:http://www.cranfordpub.com
D:currently unrecorded
B:The Cape Breton Fiddlers Collection
Z:psc. Note-  pauses, rubato etc. not indicated.
N:for Margaret and Dougie MacPhee
H:                                                        copyrights Cranford Publications, SOCAN
L:1/16
Q:222
M:C
K:G
B,A,|G,3D B,3D GFGA G2Bd|gfed edBd e2A2 A2B,A,|
G,3D B,3D GFGA G2Bd|bgdB ABcA B2G2G2:|
||Bc|d2Bd g2dg bagf g2ga|bagf gdBd e2A2 A2Bc|
d2Bd g2dg bagf g2Bd|bgdB ABcA B2G2 G2Bc|
d2Bd g2dg bagf g2Bd|bagf gdBd edcB AcBA|
GFGB cBAc BABd bagf|gdBG ABcA B2G2G2|]
